X:4
T:Gavotte 4
C:Michael Praetorius
M:C|
L:1/4
K:G
|: d2 d d | e/d/ e/f/ e/f/ g | f e d c |1 B2 B2 :|2 B3 d |
|: c B A G | B/A/ B/c/ B d | c B A G |1 B3 d :|2 B2 B2 ||
